FINK
CUT[ES RITT EIN JAEGERSMANN]
REG[Europa, Mitteleuropa, Deutschland]
KEY[F0620  16  E 6/8]
MEL[5_  5__3_5_.43_  2_2_2_3__
    5_  +1__5_3__1_  5___0_
    5_  5__3_5_.43_  2_2_2_3__
    5_  +1__5_3__1_  5___0_
    5_  5_2_5_5_3_5_  5_4_3_2__
    5_  5_2_5_5_3_5_  5_4_3_2__
    1_  1__3_3__5_  5__.^__
    5_  5_+1_5_4_3_2_  5__.+1_0_
    5_  5_+1_5_4_3_2_  1__.^_0_
    5_  5_+1_5_4_3_2_  1__.^_0_ //] >>
FCT[Staende -, Jaeger - Lied]
